public/formular-icons/greece/var-theta.svg

<svg style="vertical-align:-.025ex" xmlns="http://www.w3.org/2000/svg" width="1.337ex" height="1.62ex" viewBox="0 -705 591 716" xmlns:xlink="http://www.w3.org/1999/xlink"><defs><path id="a" d="M537 500q0-26-4-61t-9-56l-3-21q37-7 40-11 2-2 2-6 0-24-11-27-10 0-31 5l-11 3q-14-65-51-139T362 51 241-11q-141 0-141 116 0 34 27 137t27 124q0 39-26 39-21 0-36-28t-24-61-11-36q-2-2-16-2H27q-6 6-6 9 0 4 6 26t20 55 32 50q24 24 55 24 35 0 67-23t32-75q-1-14-27-116T180 98q0-72 67-72 45 0 85 64t72 170l23 89q-5 0-29 10t-59 33-50 48q-24 36-24 80 0 70 47 127t105 58q46 0 74-35t37-78 9-92Zm-73 64q0 104-51 104-40 0-74-46t-35-100q0-28 13-52t32-39 39-25 33-15 14-4h1l7 28q7 28 14 70t7 79Z"/></defs><g stroke="currentColor" fill="currentColor" stroke-width="0"><use data-c="1D717" xlink:href="#a" transform="scale(1 -1)"/></g></svg>

<svg style="vertical-align: -0.025ex" xmlns="http://www.w3.org/2000/svg" width="1.337ex" height="1.62ex" role="img" focusable="false" viewBox="0 -705 591 716" xmlns:xlink="http://www.w3.org/1999/xlink"><defs><path id="MJX-100-TEX-I-1D717" d="M537 500Q537 474 533 439T524 383L521 362Q558 355 561 351Q563 349 563 345Q563 321 552 318Q542 318 521 323L510 326Q496 261 459 187T362 51T241 -11Q100 -11 100 105Q100 139 127 242T154 366Q154 405 128 405Q107 405 92 377T68 316T57 280Q55 278 41 278H27Q21 284 21 287Q21 291 27 313T47 368T79 418Q103 442 134 442Q169 442 201 419T233 344Q232 330 206 228T180 98Q180 26 247 26Q292 26 332 90T404 260L427 349Q422 349 398 359T339 392T289 440Q265 476 265 520Q265 590 312 647T417 705Q463 705 491 670T528 592T537 500ZM464 564Q464 668 413 668Q373 668 339 622T304 522Q304 494 317 470T349 431T388 406T421 391T435 387H436L443 415Q450 443 457 485T464 564Z"></path></defs><g stroke="currentColor" fill="currentColor" stroke-width="0" transform="scale(1,-1)"><g data-mml-node="math"><g data-mml-node="mi"><use data-c="1D717" xlink:href="#MJX-100-TEX-I-1D717"></use></g></g></g></svg>
